lib/healthicons/icons/solid/symbols/hospital_symbol.svg

<svg fill="none" height="48" viewBox="0 0 48 48" width="48" xmlns="http://www.w3.org/2000/svg"><path clip-rule="evenodd" d="m23.9639 3.98039c-11.0457.00904-19.9927 8.97071-19.98365 20.01641.00904 11.0457 8.97065 19.9926 20.01635 19.9836 11.0457-.0091 19.9927-8.9707 19.9836-20.0164-.009-11.0457-8.9706-19.99266-20.0163-19.98361zm-3.9726 29.06711v-7h8v7h4v-18h-4v7h-8v-7h-4v18z" fill="#333" fill-rule="evenodd"/></svg>

<svg width="48" height="48" viewBox="0 0 48 48" fill="none" xmlns="http://www.w3.org/2000/svg">
<path fill-rule="evenodd" clip-rule="evenodd" d="M23.9639 3.98039C12.9182 3.98943 3.9712 12.9511 3.98025 23.9968C3.98929 35.0425 12.9509 43.9894 23.9966 43.9804C35.0423 43.9713 43.9893 35.0097 43.9802 23.964C43.9712 12.9183 35.0096 3.97134 23.9639 3.98039ZM19.9913 33.0475L19.9913 26.0475L27.9913 26.0475L27.9913 33.0475L31.9913 33.0475L31.9913 15.0475L27.9913 15.0475L27.9913 22.0475L19.9913 22.0475L19.9913 15.0475L15.9913 15.0475L15.9913 33.0475L19.9913 33.0475Z" fill="#333333"/>
</svg>
